resources/haticons/SVG/facebook2.svg

<!-- Generated by IcoMoon.io -->
<svg version="1.1" xmlns="http://www.w3.org/2000/svg" width="24" height="24" viewBox="0 0 24 24">
<title>facebook2</title>
<path d="M21.75 0h-19.5c-1.237 0-2.25 1.013-2.25 2.25v19.5c0 1.237 1.013 2.25 2.25 2.25h9.75v-10.5h-3v-3h3v-1.5c0-2.48 2.020-4.5 4.5-4.5h3v3h-3c-0.825 0-1.5 0.675-1.5 1.5v1.5h4.5l-0.75 3h-3.75v10.5h6.75c1.237 0 2.25-1.013 2.25-2.25v-19.5c0-1.237-1.013-2.25-2.25-2.25z"></path>
</svg>

<svg xmlns="http://www.w3.org/2000/svg" width="24" height="24"><path d="M21.75 0H2.25A2.257 2.257 0 0 0 0 2.25v19.5A2.257 2.257 0 0 0 2.25 24H12V13.5H9v-3h3V9c0-2.48 2.02-4.5 4.5-4.5h3v3h-3c-.825 0-1.5.675-1.5 1.5v1.5h4.5l-.75 3H15V24h6.75A2.257 2.257 0 0 0 24 21.75V2.25A2.257 2.257 0 0 0 21.75 0z"/></svg>
